icon-themes/breeze_svg/cmd/lc_formatcolumns.svg

<svg viewBox="0 0 24 24" xmlns="http://www.w3.org/2000/svg"><path d="m4 4v4 12h1 7v-1-1-9-1-4zm9 0v4 1 9 1 1h7v-1-11-4zm-8 4h6v11h-6zm9 0h5v11h-5z" fill="#4d4d4d"/></svg>

<svg xmlns="http://www.w3.org/2000/svg" viewBox="0 0 24 24">
 <path 
     style="fill:#4d4d4d" 
     d="M 4 4 L 4 8 L 4 20 L 5 20 L 12 20 L 12 19 L 12 18 L 12 9 L 12 8 L 12 4 L 4 4 z M 13 4 L 13 8 L 13 9 L 13 18 L 13 19 L 13 20 L 20 20 L 20 19 L 20 8 L 20 4 L 13 4 z M 5 8 L 11 8 L 11 19 L 5 19 L 5 8 z M 14 8 L 19 8 L 19 19 L 14 19 L 14 8 z "
     />
 </svg>
